icons/instructions.svg

<svg width="16" height="16" viewBox="0 0 16 16" fill="none" xmlns="http://www.w3.org/2000/svg">
<path d="M3.97559 8.29785C4.32548 8.20259 4.70317 8.23879 5.22363 8.49902L5.7998 8.7832C5.93492 8.84737 6.0234 8.88508 6.0957 8.90918C6.19691 8.94291 6.2462 8.94629 6.5 8.94629V9.94629C6.2539 9.94629 6.053 9.94866 5.7793 9.85742C5.66414 9.81902 5.53378 9.76297 5.37207 9.68652L4.77637 9.39355C4.41553 9.21313 4.29303 9.24779 4.23828 9.2627C4.1597 9.28409 4.14185 9.30001 3.99121 9.35449C3.86623 9.39968 3.70427 9.44628 3.5 9.44629V8.44629C3.54553 8.44629 3.58603 8.43769 3.65137 8.41406C3.69113 8.39968 3.85185 8.33155 3.97559 8.29785Z" fill="#909090" fill-opacity="0.9"/>
<path d="M3.97559 6.29785C4.32548 6.20259 4.70317 6.23879 5.22363 6.49902L5.7998 6.7832C5.93492 6.84737 6.0234 6.88508 6.0957 6.90918C6.19691 6.94291 6.2462 6.94629 6.5 6.94629V7.94629C6.2539 7.94629 6.053 7.94866 5.7793 7.85742C5.66414 7.81902 5.53378 7.76297 5.37207 7.68652L4.77637 7.39355C4.41553 7.21313 4.29303 7.24779 4.23828 7.2627C4.1597 7.28409 4.14185 7.30001 3.99121 7.35449C3.86623 7.39968 3.70427 7.44628 3.5 7.44629V6.44629C3.54553 6.44629 3.58603 6.43769 3.65137 6.41406C3.69113 6.39968 3.85185 6.33155 3.97559 6.29785Z" fill="#909090" fill-opacity="0.9"/>
<path d="M10.7764 6.49902C11.2968 6.23879 11.6745 6.20259 12.0244 6.29785C12.1482 6.33155 12.3089 6.39968 12.3486 6.41406C12.414 6.43769 12.4545 6.44629 12.5 6.44629V7.44629C12.2957 7.44628 12.1338 7.39968 12.0088 7.35449C11.8581 7.30001 11.8403 7.28409 11.7617 7.2627C11.707 7.24779 11.5845 7.21313 11.2236 7.39355L10.6279 7.68652C10.4662 7.76297 10.3359 7.81902 10.2207 7.85742C9.947 7.94866 9.7461 7.94629 9.5 7.94629V6.94629C9.7538 6.94629 9.80309 6.94291 9.9043 6.90918C9.9766 6.88508 10.0651 6.84737 10.2002 6.7832L10.7764 6.49902Z" fill="#909090" fill-opacity="0.9"/>
<path fill-rule="evenodd" clip-rule="evenodd" d="M12 3C13.4028 3 14.2691 3.73694 14.6094 4.30371L14.6709 4.41504L14.75 4.57324V13.25H13.25V13.2344C13.2443 13.2281 13.2299 13.2156 13.2021 13.1982C13.0778 13.1207 12.7454 13 12 13C11.3832 13 11.0211 13.1776 10.46 13.4326C10.0081 13.638 9.48529 13.8583 8.75 13.9521V14H7.25V13.9521C6.51471 13.8583 5.99191 13.638 5.54004 13.4326C4.97893 13.1776 4.61683 13 4 13C3.25459 13 2.9222 13.1207 2.79785 13.1982C2.77011 13.2156 2.75567 13.2281 2.75 13.2344V13.25H1.25V4.57324L1.3291 4.41504L1.39062 4.30371C1.7309 3.73694 2.59718 3 4 3C4.9353 3 5.58026 3.32582 6.11719 3.56445C6.63771 3.79579 7.15117 4 8 4C8.84883 4 9.36229 3.79579 9.88281 3.56445C10.4197 3.32582 11.0647 3 12 3ZM4 4.5C3.29215 4.5 2.90609 4.80439 2.75 4.97949V11.6279C3.10863 11.5414 3.52537 11.5 4 11.5C4.98311 11.5 5.62128 11.8224 6.16016 12.0674C6.49594 12.22 6.823 12.3572 7.25 12.4346V5.45312C6.50841 5.36009 5.96948 5.14073 5.50781 4.93555C4.91974 4.67418 4.5647 4.5 4 4.5ZM12 4.5C11.4353 4.5 11.0803 4.67418 10.4922 4.93555C10.0305 5.14073 9.49159 5.36009 8.75 5.45312V12.4346C9.177 12.3572 9.50406 12.22 9.83984 12.0674C10.3787 11.8224 11.0169 11.5 12 11.5C12.4746 11.5 12.8914 11.5414 13.25 11.6279V4.97949C13.0939 4.80439 12.7078 4.5 12 4.5Z" fill="#909090" fill-opacity="0.9"/>
</svg>

<svg xmlns="http://www.w3.org/2000/svg" width="16" height="16" fill="none" viewBox="0 0 16 16"><path fill="#909090" fill-opacity=".9" d="M3.976 8.298c.35-.095.727-.06 1.248.201l.576.284c.135.064.223.102.296.126.1.034.15.037.404.037v1c-.246 0-.447.003-.72-.089a4 4 0 0 1-.408-.17l-.596-.293c-.36-.18-.483-.146-.538-.131-.078.021-.096.037-.247.091a1.4 1.4 0 0 1-.491.092v-1a.4.4 0 0 0 .151-.032c.04-.014.2-.082.325-.116m0-2c.35-.095.727-.06 1.248.201l.576.284c.135.064.223.102.296.126.1.034.15.037.404.037v1c-.246 0-.447.003-.72-.089a4 4 0 0 1-.408-.17l-.596-.293c-.36-.18-.483-.146-.538-.131-.078.021-.096.037-.247.091a1.4 1.4 0 0 1-.491.092v-1a.4.4 0 0 0 .151-.032c.04-.014.2-.082.325-.116m6.8.201c.52-.26.899-.296 1.248-.201.124.034.285.102.325.116a.4.4 0 0 0 .151.032v1c-.204 0-.366-.046-.491-.092-.15-.054-.169-.07-.247-.091-.055-.015-.178-.05-.538.13l-.596.294a4 4 0 0 1-.407.17c-.274.092-.475.09-.721.09v-1c.254 0 .303-.004.404-.038a3 3 0 0 0 .296-.126z"/><path fill="#909090" fill-opacity=".9" fill-rule="evenodd" d="M12 3c1.403 0 2.27.737 2.61 1.304l.06.111.08.158v8.677h-1.5v-.016a.3.3 0 0 0-.048-.036C13.078 13.121 12.745 13 12 13c-.617 0-.979.178-1.54.433-.452.205-.975.425-1.71.52V14h-1.5v-.048c-.735-.094-1.258-.314-1.71-.52C4.979 13.179 4.617 13 4 13c-.745 0-1.078.12-1.202.198a.3.3 0 0 0-.048.036v.016h-1.5V4.573l.08-.158.06-.111C1.73 3.737 2.598 3 4 3c.935 0 1.58.326 2.117.564C6.637 3.796 7.151 4 8 4s1.362-.204 1.883-.436C10.42 3.326 11.065 3 12 3M4 4.5c-.708 0-1.094.304-1.25.48v6.648A5.4 5.4 0 0 1 4 11.5c.983 0 1.621.322 2.16.567.336.153.663.29 1.09.368V5.453c-.742-.093-1.28-.312-1.742-.517C4.92 4.674 4.565 4.5 4 4.5m8 0c-.565 0-.92.174-1.508.436-.462.205-1 .424-1.742.517v6.982c.427-.078.754-.215 1.09-.368.539-.245 1.177-.567 2.16-.567q.712-.001 1.25.128V4.979c-.156-.175-.542-.479-1.25-.479" clip-rule="evenodd"/></svg>
